X:1
T:Title
%%score 1 2
L:1/8
M:4/2
K:C
V:1 treble-8 nm="Part_1"
V:2 bass nm="Part_2"
V:1
 c8 c4 c4 | c8 c8 | z2 c2 e4 e2 c2 e2 e2 | g8 g4 g2 e2 | f2 eg d3 c d4 e2 c2 | %5
 d2 B2 c2 Bd A3 B c2 d2 | A6 G2 G4 z Bcd | e2 e2 z cde f3 e e4 | dABc d2 d2 z def g4- | %9
 g2 c2 d4 c8 | z4 G4 G4 G4 | G8 G2 G4 B2 | d8 d4 fe fd | eddc d2 de fe g4 ^f2 | %14
 g2 a2 e3 e ^f2 g4 a2 | z2 g/f/e/d/ e3 d d4 dc dB | cBBA B4 BA BG AGGF | G2 GA BA c4 B2 z2 AB | %18
 cB d4 ^c2 d2 e2 B3 B | ^c2 d B/=c/d/e/f/g/ a2 B3 A A4 | z2 c2 ddde feed eddc | %21
 d4 c2 z d eeef g2 gG | AAAB cBBA BAAG A4 | G8 z4 c4 | c4 c4 c8 | c2 c3 c B2 d4 d2 d2- | %26
 d^c c2 e4 e2 z d ff g2- | g4 gedc d2 d2 z fed | ee g4 ^fe f4 g4 | z2 B2 B2 B2 B4 B2 B2- | %30
 BB A2 ^c4 c2 z B dd e2 | e4- ecBA B2 B2 z d^cB | ^cc f4 eg d4 =c4 | gf ge feed e2 dc defg | %34
 d4 c4 dc dB cBBA | B2 AG ABcd A2 AG ABcd | A4 G2 d2 eeef g2 fe | feed eddc d4 c4 | %38
 z2 A2 BBBc d2 cB cBBA | BAAG A4 G4 z2 c2 | d2 d2 d2 e2 f4 e2 d2 | e2 d2 d2 c2 d8 | %42
 c4 z A/B/c/d/e/f/ g8- | g4 e4 d- d/c/ d/B/c/d/ G/A/B/c/ d/e/f/ z/ | %44
 z g/f/ g/e/f/g/ c- c/d/ e/c/d/e/ B/G/A/B/ c/d/e/f/ gf/e/ d/c/B/A/ | %45
 Be f/e/f/g/ de/d/ e/d/e/f/ c8- | c16 |] %47
V:2
 C2 A,2 E,2 F,2 C,2 E,2 A,,2 C,2 | F,,2 A,,2 E,,2 F,,2 C,,8 | C,12 A,,4 | G,,8 G,,4 G,2 C,2 | %4
 F,2 C,2 G,2 A,2 G,4 C,2 A,,2 | B,,2 G,,2 A,,2 G,,2 D,4 C,2 B,,2 | D,8 G,,8 | %7
 C,2 D,E, F,4 D,4 A,4 | D,6 E,F, G,4- G, G,,A,,B,, | C,2 A,,2 G,,4 C,8 | %10
 G,2 E,2 B,,2 C,2 G,,2 B,,2 E,,2 G,,2 | C,,2 E,2 B,,2 C,2 G,,2 G,2 E,4 | D,8 D,4 D,2 B,,2 | %13
 C,4 B,,4 A,,2 G,,2 D,4 | G,,2 ^F,,2 C,4 D,2 G,,4 F,,2 | A,,8 D,4 G,4 | A,4 G,4 E,4 F,4 | %17
 E,4 D,2 C,2 G,4 C,2 F,2 | E,2 D,2 A,4 D,2 ^C,2 E,4 | A,,2 D,4 ^C,2 E,4 A,,4 | %20
 A,4 G,2 G,2 G,A,A,B, C2 A,2 | G,2 G,2 A,A,A,B, C2 B,A, G,2 F,E, | %22
 D,2 C,B,, A,,2 G,,F,, E,,4 D,,4 | G,,8 C2 A,2 E,2 F,2 | C,2 E,2 A,,2 C,2 F,,2 A,,2 E,,2 F,,2 | %25
 C,,4 C,4 G,,8 | D,4 A,,8 F,4 | E,8 G,8 | C,2 B,,2 D,8 G,,4 | E,8 E,8 | E,4 A,,8 D,4 | C,8 E,8 | %32
 A,,4 G,,8 C,4 | C2 C2 F,3 F, C2 B,A, G,E,D,C, | G,4 C,4 G,2 G,2 C,3 C, | %35
 G,2 F,E, D,B,,A,,G,, D,2 D,E, E,B,,A,,G,, | D,4 G,,4 C,2 B,,A,, G,,A,,B,,C, | %37
 D,B,,A,,B,, C,2 E,,2 G,,4 C,4 | F,2 D,2 G,2 F,E, D,E,F,G, A,G,E,F, | G,2 F,E,D,C, D,2 G,,4 C,4 | %40
 G,8 D,8 | A,4 E,4 G,8 | C,8 C,8 | B,,4 C,4 G,,8- | G,,8 G,,8- | G,,8 C,8- | C,16 |] %47

